docs/img/icons/form/arrow-up.svg

<svg width="28" height="33" viewBox="0 0 28 33" fill="none" xmlns="http://www.w3.org/2000/svg">
<path d="M20.4286 0.641509L13.38 3.20699C12.9127 3.37709 12.5726 3.83724 12.4345 4.4862C12.2965 5.13516 12.3718 5.91977 12.6439 6.66744C12.9161 7.41511 13.3627 8.06458 13.8856 8.47298C14.4085 8.88138 14.9648 9.01525 15.4321 8.84515L18.2268 7.82798L15.5872 20.2369L6.40574 13.0658C6.14685 12.8635 5.87703 12.7265 5.61167 12.6626C5.34632 12.5987 5.09064 12.6092 4.85924 12.6934C4.62784 12.7776 4.42525 12.9339 4.26305 13.1535C4.10085 13.373 3.98222 13.6514 3.91394 13.9727L0.969574 27.8145C0.833248 28.4634 0.90958 29.2467 1.18184 29.9927C1.45409 30.7387 1.90005 31.3865 2.42194 31.7941C2.94383 32.2017 3.49905 32.3359 3.96589 32.1671C4.43272 31.9984 4.77306 31.5405 4.91229 30.894L7.33621 19.4988L16.5177 26.6699C16.7766 26.8722 17.0464 27.0092 17.3118 27.0731C17.5771 27.137 17.8328 27.1266 18.0642 27.0424C18.2956 26.9581 18.4982 26.8018 18.6604 26.5823C18.8226 26.3628 18.9412 26.0844 19.0095 25.763L22.1695 10.9074L23.7968 15.3783C24.0689 16.1259 24.5155 16.7754 25.0384 17.1838C25.5613 17.5922 26.1176 17.7261 26.585 17.556C27.0523 17.3859 27.3924 16.9257 27.5305 16.2768C27.6685 15.6278 27.5932 14.8432 27.3211 14.0955L23.2168 2.81922C23.0822 2.4489 22.9033 2.09878 22.6902 1.78888C22.4772 1.47897 22.2343 1.21536 21.9753 1.01311C21.7164 0.810854 21.4465 0.673933 21.1811 0.610172C20.9157 0.546411 20.66 0.557059 20.4286 0.641509Z" fill="#00C35B"/>
</svg>

<svg width="28" height="33" fill="none" xmlns="http://www.w3.org/2000/svg"><path d="M20.429.642L13.38 3.207c-.467.17-.807.63-.946 1.28-.137.648-.062 1.433.21 2.18.272.748.719 1.398 1.242 1.806.523.408 1.079.542 1.546.372l2.795-1.017-2.64 12.409-9.181-7.171a2.112 2.112 0 00-.794-.403 1.293 1.293 0 00-.753.03c-.231.085-.434.24-.596.46-.162.22-.28.498-.35.82L.97 27.814c-.137.65-.06 1.433.212 2.179.272.746.718 1.394 1.24 1.801.522.408 1.077.542 1.544.373.467-.169.807-.627.946-1.273l2.424-11.395 9.182 7.17c.259.203.528.34.794.404.265.064.52.054.752-.03.232-.085.434-.241.596-.46a2.12 2.12 0 00.35-.82l3.16-14.856 1.627 4.471c.272.748.718 1.397 1.241 1.806.523.408 1.08.542 1.547.372.467-.17.807-.63.945-1.28.139-.648.063-1.433-.209-2.18L23.217 2.819a4.6 4.6 0 00-.527-1.03 3.49 3.49 0 00-.715-.776 2.11 2.11 0 00-.794-.403 1.292 1.292 0 00-.752.032z" fill="#00C35B"/></svg>
